X:1
T:Dyb Af Kjærlighed, 66.46.66.4
T:Dyb Af Kjærlighed, 66.46.66.4
T:Johan Peter Emilius Hartmann (1805–1900)
T:Public Domain Courtesy of the Cyber Hymnal™
C:Johan Peter Emilius Hartmann (1805–1900)
Z:Public Domain
Z:Courtesy of the Cyber Hymnal™
%%score ( 1 2 ) ( 3 4 )
L:1/8
Q:1/4=108
M:4/4
K:Bb
V:1 treble 
V:2 treble 
V:3 bass 
V:4 bass 
V:1
 [FB]4 [FB]2 [FB]2 | [FA]3 [FG] F4 | [Fd]4 [Fd]2 [Fd]2 | [Fc]3 [FB] [FA]4 | [FB]4 [FG]2 [=EG]2 | %5
 [CF]8 | [Ec]4 [EA]2 [EF]2 | [DF]3 [DB] [DF]4 | [Fd]4 [F=B]2 [FG]2 | [EG]3 [Ec] [EG]4 | %10
 [Gc]4 [Gd]2 [Gd]2 | [Ge]2 G2 [EA]2 [EB]2 | [DB]4 [Ec]4 | [DB]6 z2 |] %14
V:2
 x8 | x4 F4 | x8 | x8 | x8 | x8 | x8 | x8 | x8 | x8 | x8 | x2 G2 x4 | x8 | x8 |] %14
V:3
 [B,,D]4 [B,,D]2 [B,,D]2 | [F,C]3 [F,B,] [F,A,]4 | [B,,B,]4 [B,,B,]2 [B,,B,]2 | %3
 [E,A,]3 [E,B,] [E,C]4 | [D,B,]4 [C,C]2 [C,B,]2 | [F,,A,]8 | [F,A,]4 [F,C]2 [F,A,]2 | B,3 B, B,4 | %8
 [G,=B,]4 [G,D]2 [G,B,]2 | C3 C [C,C]4 | [E,C]4 [G,=B,]2 [G,B,]2 | [C,C]2 [C,E]2 [C,C]2 [C,G,]2 | %12
 F,4 [F,A,]4 | [B,,B,]6 z2 |] %14
V:4
 x8 | x8 | x8 | x8 | x8 | x8 | x8 | B,3 B, B,2 _A,2 | x8 | C3 C x4 | x8 | x8 | F,4 x4 | x8 |] %14

